img/payment_npay.svg

<svg width="102" height="36" viewBox="0 0 102 36" fill="none" xmlns="http://www.w3.org/2000/svg">
<path d="M51.162 14.1023H54.2797C54.7141 14.0938 55.147 14.1571 55.5607 14.2898C55.894 14.3978 56.2007 14.5749 56.4607 14.8096C56.6967 15.0287 56.8788 15.2995 56.9925 15.6008C57.112 15.9174 57.1723 16.2532 57.1702 16.5916V16.8451C57.1726 17.1863 57.1089 17.5248 56.9827 17.8418C56.859 18.1511 56.6705 18.4304 56.43 18.6608C56.1708 18.9052 55.8646 19.0943 55.53 19.2166C55.129 19.3608 54.705 19.4305 54.279 19.4221H52.3582V22.8151H51.1582L51.162 14.1023ZM52.362 15.1418V18.3803H54.0742C55.3307 18.3803 55.959 17.8608 55.959 16.8218V16.6043C55.9761 16.3977 55.9442 16.1899 55.866 15.9978C55.7879 15.8057 55.6655 15.6348 55.509 15.4988C55.1281 15.2379 54.6706 15.1125 54.21 15.1426L52.362 15.1418ZM60.2242 22.9118C59.6521 22.9431 59.0878 22.7671 58.635 22.4161C58.4398 22.248 58.2856 22.0376 58.1841 21.801C58.0826 21.5643 58.0365 21.3075 58.0492 21.0503V20.7241C58.04 20.4672 58.0859 20.2113 58.1838 19.9737C58.2817 19.736 58.4294 19.5221 58.617 19.3463C59.1409 18.9452 59.7965 18.7554 60.4537 18.8146H62.133V18.4283C62.1475 18.2512 62.1267 18.0729 62.0717 17.9038C62.0167 17.7347 61.9287 17.5783 61.8127 17.4436C61.5208 17.2039 61.1463 17.0889 60.7702 17.1233C60.4252 17.1157 60.0822 17.1775 59.7615 17.3048C59.4514 17.4386 59.1542 17.6003 58.8735 17.7878L58.2937 16.9178C58.6334 16.6829 58.9981 16.4865 59.3812 16.3321C59.8279 16.159 60.304 16.0749 60.783 16.0846C61.1262 16.0807 61.4681 16.1275 61.7977 16.2233C62.086 16.3068 62.3549 16.4465 62.589 16.6343C62.8096 16.8143 62.9872 17.0414 63.1087 17.2988C63.2372 17.577 63.3013 17.8805 63.2962 18.1868V22.8151H62.1712V22.0171H62.1577C62.0895 22.1418 62.0008 22.2542 61.8952 22.3493C61.7871 22.4495 61.6675 22.5366 61.539 22.6088C61.3579 22.7075 61.1651 22.7831 60.9652 22.8338C60.7223 22.8901 60.4735 22.9163 60.2242 22.9118ZM62.1337 19.8061H60.4785C60.129 19.7735 59.7795 19.8678 59.4937 20.0716C59.3935 20.1654 59.315 20.28 59.2638 20.4074C59.2126 20.5347 59.19 20.6718 59.1975 20.8088V20.9783C59.1867 21.1146 59.2123 21.2513 59.2718 21.3744C59.3312 21.4975 59.4223 21.6025 59.5357 21.6788C59.7785 21.8286 60.0598 21.9042 60.345 21.8963C60.6005 21.9012 60.8552 21.8665 61.1002 21.7936C61.312 21.7259 61.5102 21.6216 61.686 21.4853C61.8351 21.3788 61.9538 21.235 62.0302 21.0683C62.1054 20.8739 62.1403 20.6662 62.133 20.4578L62.1337 19.8061ZM67.1587 21.4853L68.8987 16.2046H70.131L66.7012 25.5458L65.6377 25.1708L66.4957 22.9111L64.0912 16.2053H65.3602L67.1122 21.4853H67.1587Z" fill="#797979"/>
<path d="M46.9207 11H31.8374V26H46.9207V11Z" fill="#797979"/>
<path d="M35.5566 15V21.91H38.1172V18.3948L40.5752 21.9108H43.1694V15.0007H40.5752V18.5687L38.1172 15.0007L35.5566 15Z" fill="white"/>
<path d="M6 1H96V-1H6V1ZM101 6V30H103V6H101ZM96 35H6V37H96V35ZM1 30V6H-1V30H1ZM6 35C3.23858 35 1 32.7614 1 30H-1C-1 33.866 2.13401 37 6 37V35ZM101 30C101 32.7614 98.7614 35 96 35V37C99.866 37 103 33.866 103 30H101ZM96 1C98.7614 1 101 3.23858 101 6H103C103 2.13401 99.866 -1 96 -1V1ZM6 -1C2.13401 -1 -1 2.13401 -1 6H1C1 3.23858 3.23858 1 6 1V-1Z" fill="#E2E2E2"/>
</svg>

<?xml version="1.0" encoding="utf-8"?>
<!-- Generator: Adobe Illustrator 26.3.1, SVG Export Plug-In . SVG Version: 6.00 Build 0)  -->
<svg version="1.1" id="레이어_1" xmlns="http://www.w3.org/2000/svg" xmlns:xlink="http://www.w3.org/1999/xlink" x="0px"
	 y="0px" viewBox="0 0 102 36" style="enable-background:new 0 0 102 36;" xml:space="preserve">
<style type="text/css">
	.st0{fill:#797979;}
	.st1{fill:#FFFFFF;}
</style>
<path class="st0" d="M51.16,14.1h3.12c0.43-0.01,0.87,0.05,1.28,0.19c0.33,0.11,0.64,0.29,0.9,0.52c0.24,0.22,0.42,0.49,0.53,0.79
	c0.12,0.32,0.18,0.65,0.18,0.99v0.25c0,0.34-0.06,0.68-0.19,1c-0.12,0.31-0.31,0.59-0.55,0.82c-0.26,0.24-0.57,0.43-0.9,0.56
	c-0.4,0.14-0.82,0.21-1.25,0.21h-1.92v3.39h-1.2L51.16,14.1z M52.36,15.14v3.24h1.71c1.26,0,1.88-0.52,1.88-1.56V16.6
	c0.02-0.21-0.01-0.41-0.09-0.61c-0.08-0.19-0.2-0.36-0.36-0.5c-0.38-0.26-0.84-0.39-1.3-0.36L52.36,15.14z M60.22,22.91
	c-0.57,0.03-1.14-0.14-1.59-0.5c-0.2-0.17-0.35-0.38-0.45-0.62c-0.1-0.24-0.15-0.49-0.13-0.75v-0.33c-0.01-0.26,0.04-0.51,0.13-0.75
	c0.1-0.24,0.25-0.45,0.43-0.63c0.52-0.4,1.18-0.59,1.84-0.53h1.68v-0.39c0.01-0.18-0.01-0.36-0.06-0.52
	c-0.06-0.17-0.14-0.33-0.26-0.46c-0.29-0.24-0.67-0.35-1.04-0.32c-0.34-0.01-0.69,0.05-1.01,0.18c-0.31,0.13-0.61,0.3-0.89,0.48
	l-0.58-0.87c0.34-0.23,0.7-0.43,1.09-0.59c0.45-0.17,0.92-0.26,1.4-0.25c0.34,0,0.69,0.04,1.01,0.14c0.29,0.08,0.56,0.22,0.79,0.41
	c0.22,0.18,0.4,0.41,0.52,0.66c0.13,0.28,0.19,0.58,0.19,0.89v4.63h-1.12v-0.8h-0.01c-0.07,0.12-0.16,0.24-0.26,0.33
	c-0.11,0.1-0.23,0.19-0.36,0.26c-0.18,0.1-0.37,0.17-0.57,0.22C60.72,22.89,60.47,22.92,60.22,22.91z M62.13,19.81h-1.66
	c-0.35-0.03-0.7,0.06-0.98,0.27c-0.1,0.09-0.18,0.21-0.23,0.34c-0.05,0.13-0.07,0.26-0.07,0.4v0.17c-0.01,0.14,0.01,0.27,0.07,0.4
	c0.06,0.12,0.15,0.23,0.26,0.3c0.24,0.15,0.52,0.23,0.81,0.22c0.26,0,0.51-0.03,0.76-0.1c0.21-0.07,0.41-0.17,0.59-0.31
	c0.15-0.11,0.27-0.25,0.34-0.42c0.08-0.19,0.11-0.4,0.1-0.61L62.13,19.81z M67.16,21.49l1.74-5.28h1.23l-3.43,9.34l-1.06-0.38
	l0.86-2.26l-2.4-6.71h1.27l1.75,5.28H67.16z"/>
<path class="st0" d="M46.92,11H31.84v15h15.08V11z"/>
<path class="st1" d="M35.56,15v6.91h2.56v-3.52l2.46,3.52h2.59V15h-2.59v3.57L38.12,15L35.56,15z"/>
</svg>
